sharp/svg/line_style.svg

<svg xmlns="http://www.w3.org/2000/svg" width="24" height="24"><path fill="none" d="M0 0h24v24H0z"/><path d="M3 16h5v-2H3v2zm6.5 0h5v-2h-5v2zm6.5 0h5v-2h-5v2zM3 20h2v-2H3v2zm4 0h2v-2H7v2zm4 0h2v-2h-2v2zm4 0h2v-2h-2v2zm4 0h2v-2h-2v2zM3 12h8v-2H3v2zm10 0h8v-2h-8v2zM3 4v4h18V4H3z" fill="currentColor"/></svg>

<?xml version="1.0" encoding="utf-8"?>
<!-- Generator: Adobe Illustrator 19.1.0, SVG Export Plug-In . SVG Version: 6.00 Build 0)  -->
<svg version="1.1" xmlns="http://www.w3.org/2000/svg" xmlns:xlink="http://www.w3.org/1999/xlink" x="0px" y="0px" width="24px"
	 height="24px" viewBox="0 0 24 24" enable-background="new 0 0 24 24" xml:space="preserve">
<g id="Bounding_Boxes">
	<g id="ui_x5F_spec_x5F_header_copy_3" display="none">
	</g>
	<rect x="0" y="0" fill="none" width="24" height="24"/>
</g>
<g id="Sharp" fill="currentColor">
	<g id="ui_x5F_spec_x5F_header_copy_4" display="none">
	</g>
	<path d="M3,16h5v-2H3V16z M9.5,16h5v-2h-5V16z M16,16h5v-2h-5V16z M3,20h2v-2H3V20z M7,20h2v-2H7V20z M11,20h2v-2h-2V20z M15,20h2
		v-2h-2V20z M19,20h2v-2h-2V20z M3,12h8v-2H3V12z M13,12h8v-2h-8V12z M3,4v4h18V4H3z"/>
</g>
</svg>
